X: 12381
T: Fancy Meghan
R: jig
M: 6/8
K: Dmajor
|:FAF dcA|GBd c2 A|FAF BAG|FDF E3|
FAF dcA|GBd g3|afa gfe|gfe d3:|
|:Add Add|gfe d3|aAA gAA|fed eaa|
gBB fAA|ecA d2 f|gBg fAf|edc d3:|

